file/citizens.svg

<svg clip-rule="evenodd" fill-rule="evenodd" stroke-linejoin="round" stroke-miterlimit="1.41421" viewBox="0 0 560 400" xmlns="http://www.w3.org/2000/svg"><path d="m72.59 37.26v4.18h4.86v1.88h-4.86v6.25h-2.3v-14.25h7.43v1.94zm9.54 1.81h-2.26v10.49h2.26zm.32-2.97c0-.8-.66-1.41-1.44-1.41-.8 0-1.46.63-1.46 1.41s.66 1.42 1.46 1.42c.78-.01 1.44-.64 1.44-1.42zm9.54 13.47h2.24v-7.35c0-1.86-.74-3.36-3.13-3.36-1.77 0-3.04.93-3.65 2.28l-.02-.02c.11-.59.15-1.5.15-2.05h-2.15v10.49h2.26v-5.06c0-2.09 1.16-3.76 2.74-3.76 1.2 0 1.56.76 1.56 2.07zm10.98-4.75v.21c0 1.5-1.03 2.98-2.58 2.98-.89 0-1.44-.51-1.44-1.29.01-.91.73-1.9 4.02-1.9m2.33 4.75c-.04-.89-.06-1.96-.06-2.87v-4.29c0-2.15-.89-3.55-4.1-3.55-1.35 0-2.66.3-3.69.7l.21 1.92c.89-.55 2.15-.85 3.13-.85 1.65 0 2.2.68 2.2 1.98v.68c-3.78 0-6.19 1.39-6.19 3.8 0 1.67 1.14 2.68 2.94 2.68 1.67 0 2.98-.93 3.48-2.18l.02.02c-.09.57-.11 1.27-.11 1.94h2.17zm9.84 0h2.24v-7.35c0-1.86-.74-3.36-3.12-3.36-1.77 0-3.04.93-3.65 2.28l-.02-.02c.11-.59.15-1.5.15-2.05h-2.15v10.49h2.26v-5.06c0-2.09 1.16-3.76 2.75-3.76 1.2 0 1.56.76 1.56 2.07v6.76m9.33.17c1.16 0 2.26-.25 2.96-.53l-.19-1.92c-.61.32-1.48.51-2.28.51-2.09 0-2.79-1.46-2.79-3.38 0-2.22.97-3.63 2.89-3.63.76 0 1.48.17 2.11.4l.23-1.96c-.7-.21-1.5-.32-2.28-.32-3.61 0-5.32 2.43-5.32 5.76 0 3.74 1.97 5.07 4.67 5.07m7.54-10.67h-2.26v10.49h2.26zm.32-2.97c0-.8-.66-1.41-1.44-1.41-.8 0-1.46.63-1.46 1.41s.66 1.42 1.46 1.42c.78-.01 1.44-.64 1.44-1.42zm8.42 8.72v.21c0 1.5-1.03 2.98-2.58 2.98-.89 0-1.44-.51-1.44-1.29.01-.91.73-1.9 4.02-1.9m2.32 4.75c-.04-.89-.06-1.96-.06-2.87v-4.29c0-2.15-.89-3.55-4.1-3.55-1.35 0-2.66.3-3.7.7l.21 1.92c.89-.55 2.15-.85 3.13-.85 1.65 0 2.2.68 2.2 1.98v.68c-3.78 0-6.19 1.39-6.19 3.8 0 1.67 1.14 2.68 2.93 2.68 1.67 0 2.98-.93 3.49-2.18l.02.02c-.08.57-.1 1.27-.1 1.94h2.17zm3.27 0h2.26v-15.42h-2.26zm20.8-11.7.36-2.13c-1.25-.4-2.6-.61-3.97-.61-4.88 0-7.83 3.21-7.83 7.62 0 4.39 2.72 7.03 7.14 7.03 1.62 0 3.36-.32 4.77-.87v-6.69h-2.3v5.17c-.66.21-1.37.34-2.2.34-3.06 0-4.94-1.92-4.94-5.22 0-3.53 2.3-5.38 5.17-5.38 1.31 0 2.62.28 3.8.74m9.06 3.21.11-2.22c-1.97-.19-3.02 1.12-3.49 2.53h-.04c.15-.8.21-1.73.21-2.32h-2.15v10.49h2.26v-4.26c0-3.14 1.01-4.6 3.1-4.22m5.63-.32c1.79 0 2.66 1.27 2.66 3.5 0 2.43-1.22 3.57-2.68 3.57-1.75 0-2.68-1.25-2.68-3.61 0-2.4 1.33-3.46 2.7-3.46m4.99 3.36c0-3.7-1.98-5.26-4.79-5.26-3.19 0-5.24 2.43-5.24 5.6 0 3.7 1.9 5.32 4.81 5.32 3.11 0 5.22-2.43 5.22-5.66zm8.7 5.45h2.15v-10.5h-2.26v5.07c0 2.09-1.16 3.76-2.74 3.76-1.2 0-1.56-.76-1.56-2.07v-6.76h-2.24v7.35c0 1.86.74 3.36 3.13 3.36 1.77 0 3.04-.93 3.65-2.28l.02.02c-.11.59-.15 1.5-.15 2.05m9.9-8.85c1.42 0 2.07 1.18 2.07 3.29 0 2.83-1.23 3.93-3.02 3.93-.63 0-1.16-.06-1.65-.21v-3.23c0-1.79.91-3.78 2.6-3.78m4.45 3.09c0-3.17-1.37-4.94-3.86-4.94-1.61 0-2.81.85-3.4 2.18h-.04c.1-.57.13-1.42.13-1.97h-2.13v15.65h2.26v-5.13c.55.11.99.13 1.58.13 3.5-.01 5.46-2.23 5.46-5.92zm.85 8.36.95.85c3.57-3.19 2.77-6.17 1.01-6.17-1.22 0-1.75 1.35-1.05 2.2.54.67.48 1.62-.91 3.12m9.79-2.6h2.3v-14.25h-2.3zm12.19 0h2.24v-7.35c0-1.86-.74-3.36-3.13-3.36-1.77 0-3.04.93-3.65 2.28l-.02-.02c.1-.59.15-1.5.15-2.05h-2.15v10.49h2.26v-5.06c0-2.09 1.16-3.76 2.74-3.76 1.2 0 1.56.76 1.56 2.07zm9.35.17c1.16 0 2.26-.25 2.96-.53l-.19-1.92c-.61.32-1.48.51-2.28.51-2.09 0-2.79-1.46-2.79-3.38 0-2.22.97-3.63 2.89-3.63.76 0 1.48.17 2.11.4l.23-1.96c-.7-.21-1.5-.32-2.28-.32-3.61 0-5.32 2.43-5.32 5.76 0 3.74 1.97 5.07 4.67 5.07m7.98-1.46c0-.8-.68-1.48-1.5-1.48s-1.5.68-1.5 1.48c0 .82.68 1.5 1.5 1.5s1.5-.68 1.5-1.5m-172.88-19.44c2.61 0 5.13-.5 7.2-1.24l-.62-4.8c-1.45.66-3.72 1.16-5.42 1.16-5.62 0-8.14-3.39-8.14-9.47 0-5.42 2.56-9.34 7.77-9.34 1.9 0 3.8.29 5.62.83l.58-4.88c-1.82-.5-3.93-.74-5.91-.74-9.34 0-13.97 6.2-13.97 15.05-.01 6.94 3.13 13.43 12.89 13.43m17.07-20.92h-5.29v20.55h5.29zm.54-4.81c0-1.71-1.43-3.06-3.18-3.06s-3.14 1.39-3.14 3.06c0 1.71 1.39 3.1 3.14 3.1 1.74-.01 3.18-1.4 3.18-3.1zm12.68 25.77c1.45 0 2.98-.21 4.3-.54v-4.26c-.74.21-1.69.33-2.56.33-1.82 0-2.44-.74-2.44-3.39v-9.01h5v-4.09h-5v-7.74l-5.29 1.41v6.33h-3.51v4.09h3.56v10.42c-.01 4.79 1.39 6.45 5.94 6.45m14.5-20.96h-5.29v20.55h5.29zm.53-4.81c0-1.71-1.43-3.06-3.18-3.06s-3.14 1.39-3.14 3.06c0 1.71 1.39 3.1 3.14 3.1 1.75-.01 3.18-1.4 3.18-3.1zm4.18 25.35h14.8v-4.84h-3.6c-1.53 0-3.8 0-4.67.04l8.1-11.99v-3.75h-14.39v4.71h3.64c1.98 0 3.6-.04 4.38-.09l-8.27 12.16v3.76m27.63-17.11c2.23 0 3.64 1.53 3.56 4.09h-7.57c.29-2.48 1.82-4.09 4.01-4.09m8.81 5.29c0-5.08-2.65-9.18-8.64-9.18-6.16 0-9.63 4.63-9.63 10.91 0 7.24 3.64 10.5 10.17 10.5 2.56 0 5.17-.46 7.36-1.32l-.5-4.09c-1.78.83-3.97 1.28-5.99 1.28-3.8 0-5.71-1.86-5.67-5.71h12.73c.12-.86.17-1.69.17-2.39zm17.03 11.82h5.25v-14.43c0-3.6-1.49-6.57-6.12-6.57-3.35 0-5.75 1.69-6.99 4.13l-.04-.04c.21-1.08.29-2.69.29-3.64h-5v20.55h5.29v-9.92c0-3.6 2.11-6.66 4.79-6.66 1.94 0 2.52 1.28 2.52 3.43v13.15m14.56.42c5.62 0 9.18-2.73 9.18-6.78 0-6.66-8.43-5.17-8.43-8.52 0-1.28.99-2.11 3.06-2.11 1.28 0 2.65.21 3.8.54l.17-4.18c-1.24-.21-2.56-.37-3.76-.37-5.79 0-8.72 2.98-8.72 6.57 0 6.99 8.31 4.92 8.31 8.56 0 1.36-1.32 2.19-3.35 2.19-1.57 0-3.14-.29-4.42-.62l-.12 4.34c1.3.21 2.79.38 4.28.38m-148.34 19.6c1.48-1.48 1.51-3.91 0-5.41l-8.84-8.84 6.14.06c2.4.06 3.79-1.62 3.79-3.73 0-2.16-1.69-3.85-3.79-3.85h-7.64c-1.68 0-3.04 1.04-3.56 2.4-.96 2.5-2.93 4.48-5.47 5.47-1.37.54-2.4 1.88-2.4 3.56v7.64c0 2.1 1.68 3.79 3.85 3.79 2.1 0 3.79-1.39 3.73-3.79l-.06-6.14 8.84 8.84c1.5 1.5 3.93 1.47 5.41 0m0-45.17c-1.47-1.48-3.91-1.51-5.41 0l-8.84 8.84.06-6.14c.06-2.4-1.63-3.79-3.73-3.79-2.16 0-3.85 1.69-3.85 3.79v7.64c0 1.68 1.04 3.04 2.4 3.56 2.5.96 4.47 2.93 5.47 5.47.54 1.37 1.88 2.4 3.56 2.4h7.64c2.1 0 3.79-1.68 3.79-3.85 0-2.1-1.39-3.79-3.79-3.73l-6.14.06 8.84-8.84c1.5-1.5 1.47-3.94 0-5.41m-45.17 0c-1.48 1.48-1.5 3.91 0 5.41l8.84 8.84-6.14-.06c-2.4-.06-3.79 1.62-3.79 3.73 0 2.16 1.69 3.85 3.79 3.85h7.64c1.68 0 3.04-1.04 3.56-2.4.96-2.5 2.93-4.48 5.47-5.47 1.37-.54 2.4-1.88 2.4-3.56v-7.64c0-2.1-1.68-3.79-3.85-3.79-2.1 0-3.79 1.39-3.73 3.79l.06 6.14-8.84-8.84c-1.5-1.51-3.94-1.48-5.41 0m0 45.17c1.47 1.48 3.91 1.51 5.41 0l8.84-8.84-.06 6.14c-.06 2.4 1.62 3.79 3.73 3.79 2.16 0 3.85-1.69 3.85-3.79v-7.64c0-1.68-1.04-3.04-2.4-3.56-2.5-.96-4.47-2.93-5.47-5.47-.54-1.37-1.88-2.4-3.56-2.4h-7.64c-2.1 0-3.79 1.68-3.79 3.85 0 2.1 1.39 3.79 3.79 3.73l6.14-.06-8.84 8.84c-1.51 1.5-1.48 3.93 0 5.41" fill="#00965e" fill-rule="nonzero" transform="matrix(1.64594 0 0 1.64594 74.1763 154.918)"/></svg>

<?xml version="1.0" encoding="UTF-8" standalone="no"?>
<!DOCTYPE svg PUBLIC "-//W3C//DTD SVG 1.1//EN" "http://www.w3.org/Graphics/SVG/1.1/DTD/svg11.dtd">
<svg width="100%" height="100%" viewBox="0 0 560 400" version="1.1" xmlns="http://www.w3.org/2000/svg" xmlns:xlink="http://www.w3.org/1999/xlink" xml:space="preserve" xmlns:serif="http://www.serif.com/" style="fill-rule:evenodd;clip-rule:evenodd;stroke-linejoin:round;stroke-miterlimit:1.41421;">
    <g transform="matrix(1.64594,0,0,1.64594,74.1763,154.918)">
        <path d="M72.59,37.26L72.59,41.44L77.45,41.44L77.45,43.32L72.59,43.32L72.59,49.57L70.29,49.57L70.29,35.32L77.72,35.32L77.72,37.26L72.59,37.26M82.13,39.07L79.87,39.07L79.87,49.56L82.13,49.56L82.13,39.07ZM82.45,36.1C82.45,35.3 81.79,34.69 81.01,34.69C80.21,34.69 79.55,35.32 79.55,36.1C79.55,36.88 80.21,37.52 81.01,37.52C81.79,37.51 82.45,36.88 82.45,36.1ZM91.99,49.57L94.23,49.57L94.23,42.22C94.23,40.36 93.49,38.86 91.1,38.86C89.33,38.86 88.06,39.79 87.45,41.14L87.43,41.12C87.54,40.53 87.58,39.62 87.58,39.07L85.43,39.07L85.43,49.56L87.69,49.56L87.69,44.5C87.69,42.41 88.85,40.74 90.43,40.74C91.63,40.74 91.99,41.5 91.99,42.81L91.99,49.57M102.97,44.82L102.97,45.03C102.97,46.53 101.94,48.01 100.39,48.01C99.5,48.01 98.95,47.5 98.95,46.72C98.96,45.81 99.68,44.82 102.97,44.82M105.3,49.57C105.26,48.68 105.24,47.61 105.24,46.7L105.24,42.41C105.24,40.26 104.35,38.86 101.14,38.86C99.79,38.86 98.48,39.16 97.45,39.56L97.66,41.48C98.55,40.93 99.81,40.63 100.79,40.63C102.44,40.63 102.99,41.31 102.99,42.61L102.99,43.29C99.21,43.29 96.8,44.68 96.8,47.09C96.8,48.76 97.94,49.77 99.74,49.77C101.41,49.77 102.72,48.84 103.22,47.59L103.24,47.61C103.15,48.18 103.13,48.88 103.13,49.55L105.3,49.55L105.3,49.57ZM115.14,49.57L117.38,49.57L117.38,42.22C117.38,40.36 116.64,38.86 114.26,38.86C112.49,38.86 111.22,39.79 110.61,41.14L110.59,41.12C110.7,40.53 110.74,39.62 110.74,39.07L108.59,39.07L108.59,49.56L110.85,49.56L110.85,44.5C110.85,42.41 112.01,40.74 113.6,40.74C114.8,40.74 115.16,41.5 115.16,42.81L115.16,49.57M124.49,49.74C125.65,49.74 126.75,49.49 127.45,49.21L127.26,47.29C126.65,47.61 125.78,47.8 124.98,47.8C122.89,47.8 122.19,46.34 122.19,44.42C122.19,42.2 123.16,40.79 125.08,40.79C125.84,40.79 126.56,40.96 127.19,41.19L127.42,39.23C126.72,39.02 125.92,38.91 125.14,38.91C121.53,38.91 119.82,41.34 119.82,44.67C119.82,48.41 121.79,49.74 124.49,49.74M132.03,39.07L129.77,39.07L129.77,49.56L132.03,49.56L132.03,39.07ZM132.35,36.1C132.35,35.3 131.69,34.69 130.91,34.69C130.11,34.69 129.45,35.32 129.45,36.1C129.45,36.88 130.11,37.52 130.91,37.52C131.69,37.51 132.35,36.88 132.35,36.1ZM140.77,44.82L140.77,45.03C140.77,46.53 139.74,48.01 138.19,48.01C137.3,48.01 136.75,47.5 136.75,46.72C136.76,45.81 137.48,44.82 140.77,44.82M143.09,49.57C143.05,48.68 143.03,47.61 143.03,46.7L143.03,42.41C143.03,40.26 142.14,38.86 138.93,38.86C137.58,38.86 136.27,39.16 135.23,39.56L135.44,41.48C136.33,40.93 137.59,40.63 138.57,40.63C140.22,40.63 140.77,41.31 140.77,42.61L140.77,43.29C136.99,43.29 134.58,44.68 134.58,47.09C134.58,48.76 135.72,49.77 137.51,49.77C139.18,49.77 140.49,48.84 141,47.59L141.02,47.61C140.94,48.18 140.92,48.88 140.92,49.55L143.09,49.55L143.09,49.57ZM146.36,49.57L148.62,49.57L148.62,34.15L146.36,34.15L146.36,49.57ZM167.16,37.87L167.52,35.74C166.27,35.34 164.92,35.13 163.55,35.13C158.67,35.13 155.72,38.34 155.72,42.75C155.72,47.14 158.44,49.78 162.86,49.78C164.48,49.78 166.22,49.46 167.63,48.91L167.63,42.22L165.33,42.22L165.33,47.39C164.67,47.6 163.96,47.73 163.13,47.73C160.07,47.73 158.19,45.81 158.19,42.51C158.19,38.98 160.49,37.13 163.36,37.13C164.67,37.13 165.98,37.41 167.16,37.87M176.22,41.08L176.33,38.86C174.36,38.67 173.31,39.98 172.84,41.39L172.8,41.39C172.95,40.59 173.01,39.66 173.01,39.07L170.86,39.07L170.86,49.56L173.12,49.56L173.12,45.3C173.12,42.16 174.13,40.7 176.22,41.08M181.85,40.76C183.64,40.76 184.51,42.03 184.51,44.26C184.51,46.69 183.29,47.83 181.83,47.83C180.08,47.83 179.15,46.58 179.15,44.22C179.15,41.82 180.48,40.76 181.85,40.76M186.84,44.12C186.84,40.42 184.86,38.86 182.05,38.86C178.86,38.86 176.81,41.29 176.81,44.46C176.81,48.16 178.71,49.78 181.62,49.78C184.73,49.78 186.84,47.35 186.84,44.12ZM195.54,49.57L197.69,49.57L197.69,39.07L195.43,39.07L195.43,44.14C195.43,46.23 194.27,47.9 192.69,47.9C191.49,47.9 191.13,47.14 191.13,45.83L191.13,39.07L188.89,39.07L188.89,46.42C188.89,48.28 189.63,49.78 192.02,49.78C193.79,49.78 195.06,48.85 195.67,47.5L195.69,47.52C195.58,48.11 195.54,49.02 195.54,49.57M205.44,40.72C206.86,40.72 207.51,41.9 207.51,44.01C207.51,46.84 206.28,47.94 204.49,47.94C203.86,47.94 203.33,47.88 202.84,47.73L202.84,44.5C202.84,42.71 203.75,40.72 205.44,40.72M209.89,43.81C209.89,40.64 208.52,38.87 206.03,38.87C204.42,38.87 203.22,39.72 202.63,41.05L202.59,41.05C202.69,40.48 202.72,39.63 202.72,39.08L200.59,39.08L200.59,54.73L202.85,54.73L202.85,49.6C203.4,49.71 203.84,49.73 204.43,49.73C207.93,49.72 209.89,47.5 209.89,43.81ZM210.74,52.17L211.69,53.02C215.26,49.83 214.46,46.85 212.7,46.85C211.48,46.85 210.95,48.2 211.65,49.05C212.19,49.72 212.13,50.67 210.74,52.17M220.53,49.57L222.83,49.57L222.83,35.32L220.53,35.32L220.53,49.57ZM232.72,49.57L234.96,49.57L234.96,42.22C234.96,40.36 234.22,38.86 231.83,38.86C230.06,38.86 228.79,39.79 228.18,41.14L228.16,41.12C228.26,40.53 228.31,39.62 228.31,39.07L226.16,39.07L226.16,49.56L228.42,49.56L228.42,44.5C228.42,42.41 229.58,40.74 231.16,40.74C232.36,40.74 232.72,41.5 232.72,42.81L232.72,49.57M242.07,49.74C243.23,49.74 244.33,49.49 245.03,49.21L244.84,47.29C244.23,47.61 243.36,47.8 242.56,47.8C240.47,47.8 239.77,46.34 239.77,44.42C239.77,42.2 240.74,40.79 242.66,40.79C243.42,40.79 244.14,40.96 244.77,41.19L245,39.23C244.3,39.02 243.5,38.91 242.72,38.91C239.11,38.91 237.4,41.34 237.4,44.67C237.4,48.41 239.37,49.74 242.07,49.74M250.05,48.28C250.05,47.48 249.37,46.8 248.55,46.8C247.73,46.8 247.05,47.48 247.05,48.28C247.05,49.1 247.73,49.78 248.55,49.78C249.37,49.78 250.05,49.1 250.05,48.28M77.17,28.84C79.78,28.84 82.3,28.34 84.37,27.6L83.75,22.8C82.3,23.46 80.03,23.96 78.33,23.96C72.71,23.96 70.19,20.57 70.19,14.49C70.19,9.07 72.75,5.15 77.96,5.15C79.86,5.15 81.76,5.44 83.58,5.98L84.16,1.1C82.34,0.6 80.23,0.36 78.25,0.36C68.91,0.36 64.28,6.56 64.28,15.41C64.27,22.35 67.41,28.84 77.17,28.84M94.24,7.92L88.95,7.92L88.95,28.47L94.24,28.47L94.24,7.92ZM94.78,3.11C94.78,1.4 93.35,0.05 91.6,0.05C89.85,0.05 88.46,1.44 88.46,3.11C88.46,4.82 89.85,6.21 91.6,6.21C93.34,6.2 94.78,4.81 94.78,3.11ZM107.46,28.88C108.91,28.88 110.44,28.67 111.76,28.34L111.76,24.08C111.02,24.29 110.07,24.41 109.2,24.41C107.38,24.41 106.76,23.67 106.76,21.02L106.76,12.01L111.76,12.01L111.76,7.92L106.76,7.92L106.76,0.18L101.47,1.59L101.47,7.92L97.96,7.92L97.96,12.01L101.52,12.01L101.52,22.43C101.51,27.22 102.91,28.88 107.46,28.88M121.96,7.92L116.67,7.92L116.67,28.47L121.96,28.47L121.96,7.92ZM122.49,3.11C122.49,1.4 121.06,0.05 119.31,0.05C117.56,0.05 116.17,1.44 116.17,3.11C116.17,4.82 117.56,6.21 119.31,6.21C121.06,6.2 122.49,4.81 122.49,3.11ZM126.67,28.46L141.47,28.46L141.47,23.62L137.87,23.62C136.34,23.62 134.07,23.62 133.2,23.66L141.3,11.67L141.3,7.92L126.91,7.92L126.91,12.63L130.55,12.63C132.53,12.63 134.15,12.59 134.93,12.54L126.66,24.7L126.66,28.46M154.29,11.35C156.52,11.35 157.93,12.88 157.85,15.44L150.28,15.44C150.57,12.96 152.1,11.35 154.29,11.35M163.1,16.64C163.1,11.56 160.45,7.46 154.46,7.46C148.3,7.46 144.83,12.09 144.83,18.37C144.83,25.61 148.47,28.87 155,28.87C157.56,28.87 160.17,28.41 162.36,27.55L161.86,23.46C160.08,24.29 157.89,24.74 155.87,24.74C152.07,24.74 150.16,22.88 150.2,19.03L162.93,19.03C163.05,18.17 163.1,17.34 163.1,16.64ZM180.13,28.46L185.38,28.46L185.38,14.03C185.38,10.43 183.89,7.46 179.26,7.46C175.91,7.46 173.51,9.15 172.27,11.59L172.23,11.55C172.44,10.47 172.52,8.86 172.52,7.91L167.52,7.91L167.52,28.46L172.81,28.46L172.81,18.54C172.81,14.94 174.92,11.88 177.6,11.88C179.54,11.88 180.12,13.16 180.12,15.31L180.12,28.46M194.68,28.88C200.3,28.88 203.86,26.15 203.86,22.1C203.86,15.44 195.43,16.93 195.43,13.58C195.43,12.3 196.42,11.47 198.49,11.47C199.77,11.47 201.14,11.68 202.29,12.01L202.46,7.83C201.22,7.62 199.9,7.46 198.7,7.46C192.91,7.46 189.98,10.44 189.98,14.03C189.98,21.02 198.29,18.95 198.29,22.59C198.29,23.95 196.97,24.78 194.94,24.78C193.37,24.78 191.8,24.49 190.52,24.16L190.4,28.5C191.7,28.71 193.19,28.88 194.68,28.88M46.34,48.48C47.82,47 47.85,44.57 46.34,43.07L37.5,34.23L43.64,34.29C46.04,34.35 47.43,32.67 47.43,30.56C47.43,28.4 45.74,26.71 43.64,26.71L36,26.71C34.32,26.71 32.96,27.75 32.44,29.11C31.48,31.61 29.51,33.59 26.97,34.58C25.6,35.12 24.57,36.46 24.57,38.14L24.57,45.78C24.57,47.88 26.25,49.57 28.42,49.57C30.52,49.57 32.21,48.18 32.15,45.78L32.09,39.64L40.93,48.48C42.43,49.98 44.86,49.95 46.34,48.48M46.34,3.31C44.87,1.83 42.43,1.8 40.93,3.31L32.09,12.15L32.15,6.01C32.21,3.61 30.52,2.22 28.42,2.22C26.26,2.22 24.57,3.91 24.57,6.01L24.57,13.65C24.57,15.33 25.61,16.69 26.97,17.21C29.47,18.17 31.44,20.14 32.44,22.68C32.98,24.05 34.32,25.08 36,25.08L43.64,25.08C45.74,25.08 47.43,23.4 47.43,21.23C47.43,19.13 46.04,17.44 43.64,17.5L37.5,17.56L46.34,8.72C47.84,7.22 47.81,4.78 46.34,3.31M1.17,3.31C-0.31,4.79 -0.33,7.22 1.17,8.72L10.01,17.56L3.87,17.5C1.47,17.44 0.08,19.12 0.08,21.23C0.08,23.39 1.77,25.08 3.87,25.08L11.51,25.08C13.19,25.08 14.55,24.04 15.07,22.68C16.03,20.18 18,18.2 20.54,17.21C21.91,16.67 22.94,15.33 22.94,13.65L22.94,6.01C22.94,3.91 21.26,2.22 19.09,2.22C16.99,2.22 15.3,3.61 15.36,6.01L15.42,12.15L6.58,3.31C5.08,1.8 2.64,1.83 1.17,3.31M1.17,48.48C2.64,49.96 5.08,49.99 6.58,48.48L15.42,39.64L15.36,45.78C15.3,48.18 16.98,49.57 19.09,49.57C21.25,49.57 22.94,47.88 22.94,45.78L22.94,38.14C22.94,36.46 21.9,35.1 20.54,34.58C18.04,33.62 16.07,31.65 15.07,29.11C14.53,27.74 13.19,26.71 11.51,26.71L3.87,26.71C1.77,26.71 0.08,28.39 0.08,30.56C0.08,32.66 1.47,34.35 3.87,34.29L10.01,34.23L1.17,43.07C-0.34,44.57 -0.31,47 1.17,48.48" style="fill:rgb(0,150,94);fill-rule:nonzero;"/>
    </g>
</svg>
